; generated by PrusaSlicer 2.1.0+win64 on 2019-11-19 at 16:46:13 UTC

; 

; external perimeters extrusion width = 0.45mm
; perimeters extrusion width = 0.45mm
; infill extrusion width = 0.45mm
; solid infill extrusion width = 0.45mm
; top infill extrusion width = 0.40mm
; first layer extrusion width = 0.42mm

M73 P0 R26
M73 Q0 S26
M201 X1000 Y1000 Z1000 E5000 ; sets maximum accelerations, mm/sec^2
M203 X200 Y200 Z12 E120 ; sets maximum feedrates, mm/sec
M204 P1250 R1250 T1250 ; sets acceleration (P, T) and retract acceleration (R), mm/sec^2
M205 X8.00 Y8.00 Z0.40 E1.50 ; sets the jerk limits, mm/sec
M205 S0 T0 ; sets the minimum extruding and travel feed rate, mm/sec
M107
M862.3 P "MK3S" ; printer model check
M862.1 P0.4 ; nozzle diameter check
M115 U3.8.1 ; tell printer latest fw version
G90 ; use absolute coordinates
M83 ; extruder relative mode
M104 S215 ; set extruder temp
M140 S60 ; set bed temp
M190 S60 ; wait for bed temp
M109 S215 ; wait for extruder temp
G28 W ; home all without mesh bed level
G80 ; mesh bed leveling
G1 Y-3.0 F1000.0 ; go outside print area
G92 E0.0
G1 X60.0 E9.0 F1000.0 ; intro line
M73 Q0 S26
M73 P0 R26
G1 X100.0 E12.5 F1000.0 ; intro line
G92 E0.0
M221 S95
G21 ; set units to millimeters
G90 ; use absolute coordinates
M83 ; use relative distances for extrusion
M900 K30 ; Filament gcode
;BEFORE_LAYER_CHANGE
G92 E0.0
;0.2


G1 E-0.80000 F2100.00000
G1 Z0.600 F10800.000
;AFTER_LAYER_CHANGE
;0.2
G1 X80.975 Y114.245
G1 Z0.200
G1 E0.80000 F2100.00000
M204 S1000
G1 F1200
G1 X81.161 Y113.685 E0.01851
G1 X81.492 Y113.192 E0.01862
G1 X81.944 Y112.806 E0.01862
G1 X82.483 Y112.556 E0.01862
G1 X157.559 Y96.535 E2.40697
G1 X158.541 Y96.463 E0.03087
G1 X159.950 Y96.768 E0.04521
G1 X160.747 Y97.194 E0.02833
G1 X161.392 Y97.751 E0.02673
G1 X179.726 Y116.086 E0.81296
G1 X180.354 Y117.033 E0.03565
G1 X180.793 Y117.975 E0.03258
G1 X181.053 Y118.793 E0.02692
G1 X181.128 Y119.970 E0.03698
G1 X180.883 Y121.091 E0.03596
G1 X180.423 Y121.989 E0.03164
G1 X179.861 Y122.649 E0.02718
G1 X179.506 Y122.963 E0.01487
G1 X178.757 Y123.429 E0.02765
G1 X157.877 Y133.518 E0.72711
G1 X142.192 Y139.968 E0.53174
G1 X141.555 Y140.065 E0.02021
G1 X101.326 Y140.065 E1.26135
G1 X100.657 Y139.960 E0.02123
G1 X100.193 Y139.749 E0.01601
G1 X99.792 Y139.438 E0.01589
G1 X81.578 Y121.224 E0.80764
G1 X81.250 Y120.804 E0.01669
G1 X81.035 Y120.322 E0.01658
G1 X80.937 Y119.699 E0.01976
G1 X80.974 Y114.305 E0.16913
G1 F8640
G1 X81.161 Y113.685 E-0.14954
G1 X81.492 Y113.192 E-0.13713
G1 X81.944 Y112.806 E-0.13713
G1 X82.483 Y112.556 E-0.13713
G1 X83.326 Y112.377 E-0.19906
G1 E-0.04000 F2100.00000
G1 Z0.800 F10800.000
G1 X83.713 Y115.235
G1 Z0.200
G1 E0.80000 F2100.00000
G1 F1200
G1 X123.473 Y115.235 E1.24666
G1 X136.309 Y109.475 E0.44113
G1 X137.980 Y113.016 E0.12275
G1 X123.232 Y119.089 E0.50009
G1 X83.713 Y119.089 E1.23908
G1 X83.713 Y115.295 E0.11895
G1 X83.336 Y114.858 F10800.000
G1 F1200
G1 X123.393 Y114.858 E1.25596
G1 X136.493 Y108.980 E0.45020
G1 X138.490 Y113.214 E0.14678
G1 X123.306 Y119.466 E0.51486
G1 X83.336 Y119.466 E1.25324
G1 X83.336 Y114.918 E0.14259
G1 X83.735 Y114.874 F10800.000
G1 F8640
G1 X86.627 Y114.913 E-0.76000
G1 E-0.04000 F2100.00000
G1 Z0.800 F10800.000
G1 X83.826 Y118.207
G1 Z0.200
G1 E0.80000 F2100.00000
G1 F1200
G1 X84.425 Y118.806 E0.02681
G1 X84.963 Y118.806 E0.01701
G1 X83.996 Y117.839 E0.04327
G1 X83.996 Y117.301 E0.01701
G1 X85.501 Y118.806 E0.06733
G1 X86.039 Y118.806 E0.01701
G1 X83.996 Y116.763 E0.09138
G1 X83.996 Y116.225 E0.01701
G1 X86.577 Y118.806 E0.11543
G1 X87.115 Y118.806 E0.01701
G1 X83.996 Y115.687 E0.13949
G1 X83.996 Y115.518 E0.00535
G1 X84.364 Y115.518 E0.01166
G1 X87.652 Y118.806 E0.14705
G1 X88.190 Y118.806 E0.01701
G1 X84.902 Y115.518 E0.14705
G1 X85.440 Y115.518 E0.01701
G1 X88.728 Y118.806 E0.14705
G1 X89.266 Y118.806 E0.01701
G1 X85.978 Y115.518 E0.14705
G1 X86.516 Y115.518 E0.01701
G1 X89.804 Y118.806 E0.14705
G1 X90.342 Y118.806 E0.01701
G1 X87.054 Y115.518 E0.14705
G1 X87.591 Y115.518 E0.01701
G1 X90.879 Y118.806 E0.14705
G1 X91.417 Y118.806 E0.01701
G1 X88.129 Y115.518 E0.14705
G1 X88.667 Y115.518 E0.01701
G1 X91.955 Y118.806 E0.14705
G1 X92.493 Y118.806 E0.01701
G1 X89.205 Y115.518 E0.14705
G1 X89.743 Y115.518 E0.01701
G1 X93.031 Y118.806 E0.14705
G1 X93.569 Y118.806 E0.01701
G1 X90.281 Y115.518 E0.14705
G1 X90.819 Y115.518 E0.01701
G1 X94.107 Y118.806 E0.14705
G1 X94.644 Y118.806 E0.01701
G1 X91.356 Y115.518 E0.14705
G1 X91.894 Y115.518 E0.01701
G1 X95.182 Y118.806 E0.14705
G1 X95.720 Y118.806 E0.01701
G1 X92.432 Y115.518 E0.14705
G1 X92.970 Y115.518 E0.01701
G1 X96.258 Y118.806 E0.14705
G1 X96.796 Y118.806 E0.01701
G1 X93.508 Y115.518 E0.14705
G1 X94.046 Y115.518 E0.01701
G1 X97.334 Y118.806 E0.14705
G1 X97.871 Y118.806 E0.01701
G1 X94.583 Y115.518 E0.14705
G1 X95.121 Y115.518 E0.01701
G1 X98.409 Y118.806 E0.14705
G1 X98.947 Y118.806 E0.01701
G1 X95.659 Y115.518 E0.14705
G1 X96.197 Y115.518 E0.01701
G1 X99.485 Y118.806 E0.14705
G1 X100.023 Y118.806 E0.01701
G1 X96.735 Y115.518 E0.14705
G1 X97.273 Y115.518 E0.01701
G1 X100.561 Y118.806 E0.14705
G1 X101.099 Y118.806 E0.01701
G1 X97.811 Y115.518 E0.14705
G1 X98.348 Y115.518 E0.01701
G1 X101.636 Y118.806 E0.14705
G1 X102.174 Y118.806 E0.01701
G1 X98.886 Y115.518 E0.14705
G1 X99.424 Y115.518 E0.01701
G1 X102.712 Y118.806 E0.14705
G1 X103.250 Y118.806 E0.01701
G1 X99.962 Y115.518 E0.14705
G1 X100.500 Y115.518 E0.01701
G1 X103.788 Y118.806 E0.14705
G1 X104.326 Y118.806 E0.01701
G1 X101.038 Y115.518 E0.14705
G1 X101.575 Y115.518 E0.01701
G1 X104.863 Y118.806 E0.14705
G1 X105.401 Y118.806 E0.01701
G1 X102.113 Y115.518 E0.14705
G1 X102.651 Y115.518 E0.01701
G1 X105.939 Y118.806 E0.14705
G1 X106.477 Y118.806 E0.01701
G1 X103.189 Y115.518 E0.14705
G1 X103.727 Y115.518 E0.01701
G1 X107.015 Y118.806 E0.14705
G1 X107.553 Y118.806 E0.01701
G1 X104.265 Y115.518 E0.14705
G1 X104.803 Y115.518 E0.01701
G1 X108.091 Y118.806 E0.14705
G1 X108.628 Y118.806 E0.01701
G1 X105.340 Y115.518 E0.14705
G1 X105.878 Y115.518 E0.01701
G1 X109.166 Y118.806 E0.14705
G1 X109.704 Y118.806 E0.01701
G1 X106.416 Y115.518 E0.14705
G1 X106.954 Y115.518 E0.01701
G1 X110.242 Y118.806 E0.14705
G1 X110.780 Y118.806 E0.01701
G1 X107.492 Y115.518 E0.14705
G1 X108.030 Y115.518 E0.01701
G1 X111.318 Y118.806 E0.14705
G1 X111.855 Y118.806 E0.01701
G1 X108.567 Y115.518 E0.14705
G1 X109.105 Y115.518 E0.01701
G1 X112.393 Y118.806 E0.14705
G1 X112.931 Y118.806 E0.01701
G1 X109.643 Y115.518 E0.14705
G1 X110.181 Y115.518 E0.01701
G1 X113.469 Y118.806 E0.14705
G1 X114.007 Y118.806 E0.01701
G1 X110.719 Y115.518 E0.14705
G1 X111.257 Y115.518 E0.01701
G1 X114.545 Y118.806 E0.14705
G1 X115.083 Y118.806 E0.01701
G1 X111.795 Y115.518 E0.14705
G1 X112.332 Y115.518 E0.01701
G1 X115.620 Y118.806 E0.14705
G1 X116.158 Y118.806 E0.01701
G1 X112.870 Y115.518 E0.14705
G1 X113.408 Y115.518 E0.01701
G1 X116.696 Y118.806 E0.14705
G1 X117.234 Y118.806 E0.01701
G1 X113.946 Y115.518 E0.14705
G1 X114.484 Y115.518 E0.01701
G1 X117.772 Y118.806 E0.14705
G1 X118.310 Y118.806 E0.01701
G1 X115.022 Y115.518 E0.14705
G1 X115.559 Y115.518 E0.01701
G1 X118.847 Y118.806 E0.14705
G1 X119.385 Y118.806 E0.01701
G1 X116.097 Y115.518 E0.14705
G1 X116.635 Y115.518 E0.01701
G1 X119.923 Y118.806 E0.14705
G1 X120.461 Y118.806 E0.01701
G1 X117.173 Y115.518 E0.14705
G1 X117.711 Y115.518 E0.01701
G1 X120.999 Y118.806 E0.14705
G1 X121.537 Y118.806 E0.01701
G1 X118.249 Y115.518 E0.14705
G1 X118.786 Y115.518 E0.01701
G1 X122.075 Y118.806 E0.14705
G1 X122.612 Y118.806 E0.01701
G1 X119.324 Y115.518 E0.14705
G1 X119.862 Y115.518 E0.01701
G1 X123.150 Y118.806 E0.14705
G1 X123.176 Y118.806 E0.00080
G1 X123.539 Y118.657 E0.01241
G1 X120.400 Y115.518 E0.14036
G1 X120.938 Y115.518 E0.01701
G1 X123.920 Y118.500 E0.13335
G1 X124.301 Y118.343 E0.01303
G1 X121.476 Y115.518 E0.12633
G1 X122.014 Y115.518 E0.01701
G1 X124.681 Y118.186 E0.11931
G1 X125.062 Y118.029 E0.01303
G1 X122.551 Y115.518 E0.11230
G1 X123.089 Y115.518 E0.01701
G1 X125.443 Y117.872 E0.10528
G1 X125.824 Y117.716 E0.01303
G1 X123.598 Y115.489 E0.09956
G1 X123.969 Y115.323 E0.01287
G1 X126.205 Y117.559 E0.09999
G1 X126.586 Y117.402 E0.01303
G1 X124.341 Y115.156 E0.10043
G1 X124.712 Y114.990 E0.01287
G1 X126.967 Y117.245 E0.10086
G1 X127.348 Y117.088 E0.01303
G1 X125.083 Y114.823 E0.10130
G1 X125.454 Y114.656 E0.01287
G1 X127.729 Y116.931 E0.10173
G1 X128.110 Y116.774 E0.01303
G1 X125.826 Y114.490 E0.10217
G1 X126.197 Y114.323 E0.01287
G1 X128.491 Y116.617 E0.10260
G1 X128.872 Y116.460 E0.01303
G1 X126.568 Y114.157 E0.10303
G1 X126.939 Y113.990 E0.01287
G1 X129.253 Y116.304 E0.10347
G1 X129.634 Y116.147 E0.01303
G1 X127.311 Y113.823 E0.10390
G1 X127.682 Y113.657 E0.01287
G1 X130.015 Y115.990 E0.10434
G1 X130.396 Y115.833 E0.01303
G1 X128.053 Y113.490 E0.10477
G1 X128.424 Y113.324 E0.01287
G1 X130.777 Y115.676 E0.10521
G1 X131.158 Y115.519 E0.01303
G1 X128.796 Y113.157 E0.10564
G1 X129.167 Y112.990 E0.01287
G1 X131.539 Y115.362 E0.10608
G1 X131.920 Y115.205 E0.01303
G1 X129.538 Y112.824 E0.10651
G1 X129.909 Y112.657 E0.01287
G1 X132.301 Y115.049 E0.10695
G1 X132.682 Y114.892 E0.01303
G1 X130.281 Y112.491 E0.10738
G1 X130.652 Y112.324 E0.01287
G1 X133.063 Y114.735 E0.10782
G1 X133.444 Y114.578 E0.01303
G1 X131.023 Y112.157 E0.10825
G1 X131.394 Y111.991 E0.01287
G1 X133.825 Y114.421 E0.10869
G1 X134.206 Y114.264 E0.01303
G1 X131.766 Y111.824 E0.10912
G1 X132.137 Y111.658 E0.01287
G1 X134.587 Y114.107 E0.10956
G1 X134.968 Y113.950 E0.01303
G1 X132.508 Y111.491 E0.10999
G1 X132.879 Y111.324 E0.01287
G1 X135.349 Y113.794 E0.11042
G1 X135.730 Y113.637 E0.01303
G1 X133.251 Y111.158 E0.11086
G1 X133.622 Y110.991 E0.01287
G1 X136.111 Y113.480 E0.11129
G1 X136.491 Y113.323 E0.01303
G1 X133.993 Y110.825 E0.11173
G1 X134.364 Y110.658 E0.01287
G1 X136.872 Y113.166 E0.11216
G1 X137.253 Y113.009 E0.01303
G1 X134.736 Y110.491 E0.11260
G1 X135.107 Y110.325 E0.01287
G1 X137.550 Y112.768 E0.10926
G1 X137.070 Y111.750 E0.03560
G1 X135.478 Y110.158 E0.07118
G1 X135.849 Y109.992 E0.01287
G1 X136.945 Y111.087 E0.04898
G1 F8640
G1 X135.849 Y109.992 E-0.35766
G1 X135.478 Y110.158 E-0.09396
G1 X136.423 Y111.103 E-0.30838
G1 E-0.04000 F2100.00000
G1 Z0.800 F10800.000
G1 X155.995 Y102.201
G1 Z0.200
G1 E0.80000 F2100.00000
G1 F1200
G1 X156.312 Y102.692 E0.01832
G1 X156.757 Y103.097 E0.01888
G1 X157.293 Y103.373 E0.01888
G1 X157.881 Y103.500 E0.01888
G1 X158.482 Y103.471 E0.01888
G1 X159.039 Y103.293 E0.01832
G1 X158.612 Y103.494 E0.01479
G1 X158.152 Y103.642 E0.01516
G1 X157.685 Y103.664 E0.01464
G1 X157.234 Y103.568 E0.01447
G1 X156.776 Y103.326 E0.01623
G1 X156.444 Y103.016 E0.01422
G1 X156.197 Y102.628 E0.01445
G1 X156.021 Y102.255 E0.01292
G1 X156.204 Y102.542 F10800.000
G1 X155.981 Y102.169
G1 F1200
G1 X155.838 Y101.866 E0.01051
G1 X155.688 Y101.393 E0.01553
G1 X155.668 Y100.928 E0.01461
G1 X155.763 Y100.489 E0.01408
G1 X155.982 Y100.059 E0.01514
G1 X156.298 Y99.711 E0.01471
G1 X156.391 Y99.651 E0.00349
G1 X156.177 Y99.888 E0.01002
G1 X155.901 Y100.423 E0.01888
G1 X155.773 Y101.012 E0.01889
G1 X155.806 Y101.623 E0.01921
G1 X155.962 Y102.112 E0.01609
G1 X155.865 Y101.854 F10800.000
G1 F8640
G1 X155.838 Y101.866 E-0.06371
G1 X155.688 Y101.393 E-0.11440
G1 X155.668 Y100.928 E-0.10762
G1 X155.763 Y100.489 E-0.10368
G1 X155.982 Y100.059 E-0.11146
G1 X156.298 Y99.711 E-0.10835
G1 X156.391 Y99.651 E-0.02573
G1 X156.177 Y99.888 E-0.07376
G1 X156.075 Y100.085 E-0.05129
G1 E-0.04000 F2100.00000
G1 Z0.800 F10800.000
G1 X157.943 Y98.919
G1 Z0.200
G1 E0.80000 F2100.00000
G1 F1200
G1 X158.049 Y98.885 E0.00348
G1 X158.528 Y98.865 E0.01504
G1 X158.978 Y98.962 E0.01442
G1 X159.395 Y99.177 E0.01473
G1 X159.743 Y99.493 E0.01473
G1 X160.005 Y99.900 E0.01516
G1 X160.148 Y100.203 E0.01053
G1 X159.832 Y99.712 E0.01832
G1 X159.386 Y99.307 E0.01888
G1 X158.850 Y99.031 E0.01889
G1 X158.251 Y98.904 E0.01921
G1 X158.003 Y98.916 E0.00778
G1 X158.053 Y98.901 F10800.000
G1 F8640
G1 X158.049 Y98.885 E-0.01274
G1 X158.528 Y98.865 E-0.11079
G1 X158.978 Y98.962 E-0.10617
G1 X159.395 Y99.177 E-0.10846
G1 X159.743 Y99.493 E-0.10846
G1 X160.005 Y99.900 E-0.11166
G1 X160.148 Y100.203 E-0.07751
G1 X159.857 Y99.751 E-0.12421
G1 E-0.04000 F2100.00000
G1 Z0.800 F10800.000
G1 X160.163 Y100.235
G1 Z0.200
G1 E0.80000 F2100.00000
G1 F1200
G1 X160.364 Y100.661 E0.01479
G1 X160.511 Y101.122 E0.01516
G1 X160.534 Y101.591 E0.01473
G1 X160.435 Y102.050 E0.01471
G1 X160.213 Y102.475 E0.01504
G1 X159.904 Y102.815 E0.01442
G1 X159.497 Y103.077 E0.01516
G1 X159.070 Y103.278 E0.01479
G1 X159.562 Y102.962 E0.01832
G1 X159.967 Y102.516 E0.01888
G1 X160.242 Y101.981 E0.01888
G1 X160.370 Y101.393 E0.01888
G1 X160.341 Y100.791 E0.01888
G1 X160.181 Y100.292 E0.01644
G1 X160.301 Y100.610 F10800.000
G1 F8640
G1 X160.364 Y100.661 E-0.09516
G1 X160.511 Y101.122 E-0.11166
G1 X160.534 Y101.591 E-0.10846
G1 X160.435 Y102.050 E-0.10833
G1 X160.213 Y102.475 E-0.11079
G1 X159.904 Y102.815 E-0.10617
G1 X159.497 Y103.077 E-0.11166
G1 X159.466 Y103.091 E-0.00776
G1 E-0.04000 F2100.00000
G1 Z0.800 F10800.000
G1 X154.510 Y127.676
G1 Z0.200
G1 E0.80000 F2100.00000
G1 F1200
G1 X156.180 Y131.216 E0.12275
G1 X141.432 Y137.289 E0.50009
G1 X101.913 Y137.289 E1.23908
M73 Q4 S25
M73 P4 R25
G1 X101.913 Y133.436 E0.12083
G1 X141.674 Y133.436 E1.24666
G1 X154.455 Y127.700 E0.43925
G1 X154.693 Y127.180 F10800.000
G1 F1200
G1 X156.690 Y131.414 E0.14678
G1 X141.506 Y137.666 E0.51486
G1 X101.536 Y137.666 E1.25324
G1 X101.536 Y133.059 E0.14447
G1 X141.593 Y133.059 E1.25596
G1 X154.638 Y127.205 E0.44832
G1 X154.616 Y127.573 F10800.000
G1 F8640
G1 X156.080 Y130.163 E-0.76000
G1 E-0.04000 F2100.00000
G1 Z0.800 F10800.000
G1 X155.145 Y129.287
G1 Z0.200
G1 E0.80000 F2100.00000
G1 F1200
G1 X154.050 Y128.192 E0.04898
G1 X153.678 Y128.359 E0.01287
G1 X155.270 Y129.950 E0.07118
G1 X155.750 Y130.968 E0.03560
G1 X153.307 Y128.525 E0.10926
G1 X152.936 Y128.692 E0.01287
G1 X155.454 Y131.209 E0.11260
G1 X155.073 Y131.366 E0.01303
G1 X152.565 Y128.858 E0.11216
G1 X152.193 Y129.025 E0.01287
G1 X154.692 Y131.523 E0.11173
G1 X154.311 Y131.680 E0.01303
G1 X151.822 Y129.192 E0.11129
G1 X151.451 Y129.358 E0.01287
G1 X153.930 Y131.837 E0.11086
G1 X153.549 Y131.994 E0.01303
G1 X151.080 Y129.525 E0.11042
G1 X150.708 Y129.691 E0.01287
G1 X153.168 Y132.151 E0.10999
G1 X152.787 Y132.308 E0.01303
G1 X150.337 Y129.858 E0.10956
G1 X149.966 Y130.025 E0.01287
G1 X152.406 Y132.464 E0.10912
G1 X152.025 Y132.621 E0.01303
G1 X149.595 Y130.191 E0.10869
G1 X149.223 Y130.358 E0.01287
G1 X151.644 Y132.778 E0.10825
G1 X151.263 Y132.935 E0.01303
G1 X148.852 Y130.524 E0.10782
G1 X148.481 Y130.691 E0.01287
G1 X150.882 Y133.092 E0.10738
G1 X150.501 Y133.249 E0.01303
G1 X148.110 Y130.857 E0.10695
G1 X147.738 Y131.024 E0.01287
G1 X150.120 Y133.406 E0.10651
G1 X149.739 Y133.563 E0.01303
G1 X147.367 Y131.191 E0.10608
G1 X146.996 Y131.357 E0.01287
G1 X149.358 Y133.720 E0.10564
G1 X148.977 Y133.876 E0.01303
G1 X146.625 Y131.524 E0.10521
G1 X146.254 Y131.690 E0.01287
G1 X148.596 Y134.033 E0.10477
G1 X148.215 Y134.190 E0.01303
G1 X145.882 Y131.857 E0.10434
G1 X145.511 Y132.024 E0.01287
G1 X147.834 Y134.347 E0.10390
G1 X147.453 Y134.504 E0.01303
G1 X145.140 Y132.190 E0.10347
G1 X144.769 Y132.357 E0.01287
G1 X147.072 Y134.661 E0.10303
G1 X146.691 Y134.818 E0.01303
G1 X144.397 Y132.523 E0.10260
G1 X144.026 Y132.690 E0.01287
G1 X146.310 Y134.975 E0.10217
G1 X145.930 Y135.131 E0.01303
G1 X143.655 Y132.857 E0.10173
G1 X143.284 Y133.023 E0.01287
G1 X145.549 Y135.288 E0.10130
G1 X145.168 Y135.445 E0.01303
G1 X142.912 Y133.190 E0.10086
G1 X142.541 Y133.356 E0.01287
G1 X144.787 Y135.602 E0.10043
G1 X144.406 Y135.759 E0.01303
G1 X142.170 Y133.523 E0.09999
G1 X141.799 Y133.690 E0.01287
G1 X144.025 Y135.916 E0.09956
G1 X143.644 Y136.073 E0.01303
G1 X141.290 Y133.719 E0.10528
G1 X140.752 Y133.719 E0.01701
G1 X143.263 Y136.230 E0.11230
G1 X142.882 Y136.386 E0.01303
G1 X140.214 Y133.719 E0.11931
G1 X139.676 Y133.719 E0.01701
G1 X142.501 Y136.543 E0.12633
G1 X142.120 Y136.700 E0.01303
G1 X139.138 Y133.719 E0.13335
