; generated by PrusaSlicer 2.1.0+win64 on 2019-11-18 at 22:33:19 UTC

; 

; external perimeters extrusion width = 0.45mm
; perimeters extrusion width = 0.45mm
; infill extrusion width = 0.45mm
; solid infill extrusion width = 0.45mm
; top infill extrusion width = 0.40mm
; first layer extrusion width = 0.42mm

M73 P0 R22
M73 Q0 S22
M201 X1000 Y1000 Z1000 E5000 ; sets maximum accelerations, mm/sec^2
M203 X200 Y200 Z12 E120 ; sets maximum feedrates, mm/sec
M204 P1250 R1250 T1250 ; sets acceleration (P, T) and retract acceleration (R), mm/sec^2
M205 X8.00 Y8.00 Z0.40 E1.50 ; sets the jerk limits, mm/sec
M205 S0 T0 ; sets the minimum extruding and travel feed rate, mm/sec
M107
M862.3 P "MK3S" ; printer model check
M862.1 P0.4 ; nozzle diameter check
M115 U3.8.1 ; tell printer latest fw version
G90 ; use absolute coordinates
M83 ; extruder relative mode
M104 S215 ; set extruder temp
M140 S60 ; set bed temp
M190 S60 ; wait for bed temp
M109 S215 ; wait for extruder temp
G28 W ; home all without mesh bed level
G80 ; mesh bed leveling
G1 Y-3.0 F1000.0 ; go outside print area
G92 E0.0
G1 X60.0 E9.0 F1000.0 ; intro line
M73 Q0 S22
M73 P0 R22
G1 X100.0 E12.5 F1000.0 ; intro line
G92 E0.0
M221 S95
G21 ; set units to millimeters
G90 ; use absolute coordinates
M83 ; use relative distances for extrusion
M900 K30 ; Filament gcode
;BEFORE_LAYER_CHANGE
G92 E0.0
;0.2


G1 E-0.80000 F2100.00000
G1 Z0.600 F10800.000
;AFTER_LAYER_CHANGE
;0.2
G1 X89.785 Y100.498
G1 Z0.200
G1 E0.80000 F2100.00000
M204 S1000
G1 F1200
G1 X130.327 Y100.455 E1.27117
G1 X131.280 Y100.640 E0.03046
G1 X132.097 Y101.167 E0.03046
G1 X132.659 Y101.959 E0.03046
G1 X132.886 Y102.900 E0.03034
G1 X132.888 Y107.939 E0.15801
G1 X132.794 Y108.588 E0.02054
G1 X132.509 Y109.242 E0.02238
G1 X132.055 Y109.793 E0.02238
G1 X131.466 Y110.197 E0.02238
G1 X130.793 Y110.422 E0.02226
G1 X90.132 Y110.462 E1.27489
G1 X89.297 Y110.280 E0.02680
G1 X88.568 Y109.833 E0.02680
G1 X88.027 Y109.172 E0.02680
G1 X87.732 Y108.370 E0.02680
G1 X87.689 Y103.004 E0.16823
G1 X87.771 Y102.374 E0.01992
G1 X88.052 Y101.705 E0.02275
G1 X88.505 Y101.143 E0.02263
G1 X89.097 Y100.730 E0.02263
G1 X89.728 Y100.517 E0.02087
G1 X89.846 Y100.874 F10800.000
G1 F1200
G1 X130.326 Y100.832 E1.26923
G1 X131.143 Y100.991 E0.02608
G1 X131.838 Y101.441 E0.02597
G1 X132.318 Y102.121 E0.02608
G1 X132.509 Y102.930 E0.02608
G1 X132.511 Y107.925 E0.15662
G1 X132.444 Y108.439 E0.01623
G1 X132.204 Y109.018 E0.01964
G1 X131.810 Y109.505 E0.01964
G1 X131.298 Y109.859 E0.01953
G1 X130.703 Y110.055 E0.01964
G1 X90.163 Y110.086 E1.27110
G1 X89.441 Y109.932 E0.02315
G1 X88.814 Y109.548 E0.02304
G1 X88.348 Y108.975 E0.02315
G1 X88.099 Y108.280 E0.02315
G1 X88.066 Y103.009 E0.16527
G1 X88.126 Y102.510 E0.01578
G1 X88.362 Y101.921 E0.01987
G1 X88.756 Y101.425 E0.01987
G1 X89.273 Y101.064 E0.01976
G1 X89.789 Y100.893 E0.01706
G1 F8640
G1 X93.080 Y100.888 E-0.76000
G1 E-0.04000 F2100.00000
G1 Z0.800 F10800.000
G1 X90.841 Y103.607
G1 Z0.200
G1 E0.80000 F2100.00000
G1 F1200
G1 X128.947 Y103.607 E1.19477
G1 X128.947 Y107.313 E0.11618
G1 X90.841 Y107.313 E1.19477
G1 X90.841 Y103.667 E0.11430
G1 X90.464 Y103.230 F10800.000
G1 F1200
G1 X129.324 Y103.230 E1.21841
G1 X129.324 Y107.690 E0.13983
G1 X90.464 Y107.690 E1.21841
G1 X90.464 Y103.290 E0.13795
G1 X90.864 Y103.245 F10800.000
G1 F8640
G1 X93.756 Y103.285 E-0.76000
G1 E-0.04000 F2100.00000
G1 Z0.800 F10800.000
G1 X90.955 Y106.430
G1 Z0.200
G1 E0.80000 F2100.00000
G1 F1200
G1 X91.554 Y107.030 E0.02684
G1 X92.092 Y107.030 E0.01702
G1 X91.124 Y106.062 E0.04332
G1 X91.124 Y105.524 E0.01702
G1 X92.631 Y107.030 E0.06740
G1 X93.169 Y107.030 E0.01702
G1 X91.124 Y104.985 E0.09147
G1 X91.124 Y104.447 E0.01702
G1 X93.707 Y107.030 E0.11555
G1 X94.245 Y107.030 E0.01702
G1 X91.124 Y103.909 E0.13963
G1 X91.124 Y103.890 E0.00061
G1 X91.643 Y103.890 E0.01641
G1 X94.783 Y107.030 E0.14049
G1 X95.321 Y107.030 E0.01702
G1 X92.181 Y103.890 E0.14049
G1 X92.719 Y103.890 E0.01702
G1 X95.859 Y107.030 E0.14049
G1 X96.397 Y107.030 E0.01702
G1 X93.257 Y103.890 E0.14049
G1 X93.796 Y103.890 E0.01702
G1 X96.935 Y107.030 E0.14049
G1 X97.473 Y107.030 E0.01702
G1 X94.334 Y103.890 E0.14049
G1 X94.872 Y103.890 E0.01702
G1 X98.012 Y107.030 E0.14049
G1 X98.550 Y107.030 E0.01702
G1 X95.410 Y103.890 E0.14049
G1 X95.948 Y103.890 E0.01702
G1 X99.088 Y107.030 E0.14049
G1 X99.626 Y107.030 E0.01702
G1 X96.486 Y103.890 E0.14049
G1 X97.024 Y103.890 E0.01702
G1 X100.164 Y107.030 E0.14049
G1 X100.702 Y107.030 E0.01702
G1 X97.562 Y103.890 E0.14049
G1 X98.100 Y103.890 E0.01702
G1 X101.240 Y107.030 E0.14049
G1 X101.778 Y107.030 E0.01702
G1 X98.638 Y103.890 E0.14049
G1 X99.177 Y103.890 E0.01702
G1 X102.316 Y107.030 E0.14049
G1 X102.854 Y107.030 E0.01702
G1 X99.715 Y103.890 E0.14049
G1 X100.253 Y103.890 E0.01702
G1 X103.393 Y107.030 E0.14049
G1 X103.931 Y107.030 E0.01702
G1 X100.791 Y103.890 E0.14049
G1 X101.329 Y103.890 E0.01702
G1 X104.469 Y107.030 E0.14049
G1 X105.007 Y107.030 E0.01702
G1 X101.867 Y103.890 E0.14049
G1 X102.405 Y103.890 E0.01702
G1 X105.545 Y107.030 E0.14049
G1 X106.083 Y107.030 E0.01702
G1 X102.943 Y103.890 E0.14049
G1 X103.481 Y103.890 E0.01702
G1 X106.621 Y107.030 E0.14049
G1 X107.159 Y107.030 E0.01702
G1 X104.019 Y103.890 E0.14049
G1 X104.558 Y103.890 E0.01702
G1 X107.697 Y107.030 E0.14049
G1 X108.235 Y107.030 E0.01702
G1 X105.096 Y103.890 E0.14049
G1 X105.634 Y103.890 E0.01702
G1 X108.774 Y107.030 E0.14049
G1 X109.312 Y107.030 E0.01702
G1 X106.172 Y103.890 E0.14049
G1 X106.710 Y103.890 E0.01702
G1 X109.850 Y107.030 E0.14049
G1 X110.388 Y107.030 E0.01702
G1 X107.248 Y103.890 E0.14049
G1 X107.786 Y103.890 E0.01702
G1 X110.926 Y107.030 E0.14049
G1 X111.464 Y107.030 E0.01702
G1 X108.324 Y103.890 E0.14049
G1 X108.862 Y103.890 E0.01702
G1 X112.002 Y107.030 E0.14049
G1 X112.540 Y107.030 E0.01702
G1 X109.400 Y103.890 E0.14049
G1 X109.939 Y103.890 E0.01702
G1 X113.078 Y107.030 E0.14049
G1 X113.616 Y107.030 E0.01702
G1 X110.477 Y103.890 E0.14049
G1 X111.015 Y103.890 E0.01702
G1 X114.155 Y107.030 E0.14049
G1 X114.693 Y107.030 E0.01702
G1 X111.553 Y103.890 E0.14049
G1 X112.091 Y103.890 E0.01702
G1 X115.231 Y107.030 E0.14049
G1 X115.769 Y107.030 E0.01702
G1 X112.629 Y103.890 E0.14049
G1 X113.167 Y103.890 E0.01702
G1 X116.307 Y107.030 E0.14049
G1 X116.845 Y107.030 E0.01702
G1 X113.705 Y103.890 E0.14049
G1 X114.243 Y103.890 E0.01702
G1 X117.383 Y107.030 E0.14049
G1 X117.921 Y107.030 E0.01702
G1 X114.781 Y103.890 E0.14049
G1 X115.320 Y103.890 E0.01702
G1 X118.459 Y107.030 E0.14049
G1 X118.997 Y107.030 E0.01702
G1 X115.858 Y103.890 E0.14049
G1 X116.396 Y103.890 E0.01702
G1 X119.536 Y107.030 E0.14049
G1 X120.074 Y107.030 E0.01702
G1 X116.934 Y103.890 E0.14049
G1 X117.472 Y103.890 E0.01702
G1 X120.612 Y107.030 E0.14049
G1 X121.150 Y107.030 E0.01702
G1 X118.010 Y103.890 E0.14049
G1 X118.548 Y103.890 E0.01702
G1 X121.688 Y107.030 E0.14049
G1 X122.226 Y107.030 E0.01702
G1 X119.086 Y103.890 E0.14049
G1 X119.624 Y103.890 E0.01702
G1 X122.764 Y107.030 E0.14049
G1 X123.302 Y107.030 E0.01702
G1 X120.162 Y103.890 E0.14049
G1 X120.701 Y103.890 E0.01702
G1 X123.840 Y107.030 E0.14049
G1 X124.378 Y107.030 E0.01702
G1 X121.239 Y103.890 E0.14049
G1 X121.777 Y103.890 E0.01702
G1 X124.917 Y107.030 E0.14049
G1 X125.455 Y107.030 E0.01702
G1 X122.315 Y103.890 E0.14049
G1 X122.853 Y103.890 E0.01702
G1 X125.993 Y107.030 E0.14049
G1 X126.531 Y107.030 E0.01702
G1 X123.391 Y103.890 E0.14049
G1 X123.929 Y103.890 E0.01702
G1 X127.069 Y107.030 E0.14049
G1 X127.607 Y107.030 E0.01702
G1 X124.467 Y103.890 E0.14049
G1 X125.005 Y103.890 E0.01702
G1 X128.145 Y107.030 E0.14049
G1 X128.664 Y107.030 E0.01642
G1 X128.664 Y107.011 E0.00061
G1 X125.543 Y103.890 E0.13963
G1 X126.081 Y103.890 E0.01702
G1 X128.664 Y106.473 E0.11555
G1 X128.664 Y105.934 E0.01702
G1 X126.620 Y103.890 E0.09147
G1 X127.158 Y103.890 E0.01702
G1 X128.664 Y105.396 E0.06740
G1 X128.664 Y104.858 E0.01702
G1 X127.696 Y103.890 E0.04332
G1 X128.234 Y103.890 E0.01702
G1 X128.834 Y104.490 E0.02684
M106 S255
;BEFORE_LAYER_CHANGE
G92 E0.0
;0.35


G1 F8640
G1 X128.234 Y103.890 E-0.19587
G1 X127.696 Y103.890 E-0.12425
G1 X128.664 Y104.858 E-0.31618
G1 X128.664 Y105.394 E-0.12370
G1 E-0.04000 F2100.00000
G1 Z0.800 F10800.000
;AFTER_LAYER_CHANGE
;0.35
G1 X132.659 Y101.959
G1 Z0.350
G1 E0.80000 F2100.00000
G1 F1874
G1 X132.886 Y102.900 E0.02340
G1 X132.888 Y107.939 E0.12188
G1 X132.794 Y108.588 E0.01584
G1 X132.509 Y109.242 E0.01727
G1 X132.055 Y109.793 E0.01727
G1 X131.466 Y110.197 E0.01727
G1 X130.793 Y110.422 E0.01717
G1 X90.132 Y110.462 E0.98338
G1 X89.297 Y110.280 E0.02067
G1 X88.568 Y109.833 E0.02067
G1 X88.027 Y109.172 E0.02067
G1 X87.732 Y108.370 E0.02067
G1 X87.689 Y103.004 E0.12976
G1 X87.771 Y102.374 E0.01537
G1 X88.052 Y101.705 E0.01755
G1 X88.505 Y101.143 E0.01746
G1 X89.097 Y100.730 E0.01746
G1 X89.785 Y100.498 E0.01755
G1 X130.327 Y100.455 E0.98051
G1 X131.280 Y100.640 E0.02350
G1 X132.097 Y101.167 E0.02350
G1 X132.624 Y101.910 E0.02205
G1 F8640
G1 X132.886 Y102.900 E-0.23635
G1 X132.887 Y105.168 E-0.52365
G1 E-0.04000 F2100.00000
G1 Z0.950 F10800.000
G1 X129.316 Y103.663
G1 Z0.350
G1 E0.80000 F2100.00000
M204 S800
G1 F1874
G1 X129.316 Y107.257 E0.09364
G1 X90.897 Y107.257 E1.00103
G1 X90.897 Y103.663 E0.09364
G1 X129.256 Y103.663 E0.99946
M204 S1000
G1 F8640
G1 X129.311 Y106.954 E-0.76000
G1 E-0.04000 F2100.00000
G1 Z0.950 F10800.000
G1 X90.479 Y107.675
G1 Z0.350
G1 E0.80000 F2100.00000
M204 S800
G1 F1500
G1 X90.479 Y103.245 E0.11542
G1 X129.734 Y103.245 E1.02280
G1 X129.734 Y107.675 E0.11542
G1 X90.539 Y107.675 E1.02124
M204 S1000
G1 X90.666 Y107.321 F10800.000
G1 F8640
G1 X90.495 Y104.384 E-0.76000
G1 E-0.04000 F2100.00000
G1 Z0.950 F10800.000
G1 X91.023 Y104.638
G1 Z0.350
G1 E0.80000 F2100.00000
M204 S1250
G1 F1874
G1 X91.684 Y103.976 E0.02451
G1 X92.278 Y103.976 E0.01557
G1 X91.211 Y105.044 E0.03956
G1 X91.211 Y105.638 E0.01557
G1 X92.872 Y103.976 E0.06158
G1 X93.467 Y103.976 E0.01557
G1 X91.211 Y106.232 E0.08360
G1 X91.211 Y106.827 E0.01557
G1 X94.061 Y103.976 E0.10562
G1 X94.655 Y103.976 E0.01557
G1 X91.688 Y106.944 E0.10996
G1 X92.282 Y106.944 E0.01557
G1 X95.249 Y103.976 E0.10996
G1 X95.844 Y103.976 E0.01557
G1 X92.876 Y106.944 E0.10996
G1 X93.470 Y106.944 E0.01557
G1 X96.438 Y103.976 E0.10996
G1 X97.032 Y103.976 E0.01557
G1 X94.065 Y106.944 E0.10996
G1 X94.659 Y106.944 E0.01557
G1 X97.626 Y103.976 E0.10996
G1 X98.220 Y103.976 E0.01557
G1 X95.253 Y106.944 E0.10996
G1 X95.847 Y106.944 E0.01557
G1 X98.815 Y103.976 E0.10996
G1 X99.409 Y103.976 E0.01557
G1 X96.441 Y106.944 E0.10996
G1 X97.036 Y106.944 E0.01557
G1 X100.003 Y103.976 E0.10996
G1 X100.597 Y103.976 E0.01557
G1 X97.630 Y106.944 E0.10996
G1 X98.224 Y106.944 E0.01557
G1 X101.191 Y103.976 E0.10996
G1 X101.786 Y103.976 E0.01557
G1 X98.818 Y106.944 E0.10996
G1 X99.413 Y106.944 E0.01557
G1 X102.380 Y103.976 E0.10996
G1 X102.974 Y103.976 E0.01557
G1 X100.007 Y106.944 E0.10996
G1 X100.601 Y106.944 E0.01557
G1 X103.568 Y103.976 E0.10996
G1 X104.162 Y103.976 E0.01557
G1 X101.195 Y106.944 E0.10996
G1 X101.789 Y106.944 E0.01557
G1 X104.757 Y103.976 E0.10996
G1 X105.351 Y103.976 E0.01557
G1 X102.384 Y106.944 E0.10996
G1 X102.978 Y106.944 E0.01557
G1 X105.945 Y103.976 E0.10996
G1 X106.539 Y103.976 E0.01557
G1 X103.572 Y106.944 E0.10996
G1 X104.166 Y106.944 E0.01557
G1 X107.134 Y103.976 E0.10996
G1 X107.728 Y103.976 E0.01557
G1 X104.760 Y106.944 E0.10996
G1 X105.355 Y106.944 E0.01557
G1 X108.322 Y103.976 E0.10996
G1 X108.916 Y103.976 E0.01557
G1 X105.949 Y106.944 E0.10996
G1 X106.543 Y106.944 E0.01557
G1 X109.510 Y103.976 E0.10996
G1 X110.105 Y103.976 E0.01557
G1 X107.137 Y106.944 E0.10996
G1 X107.732 Y106.944 E0.01557
G1 X110.699 Y103.976 E0.10996
G1 X111.293 Y103.976 E0.01557
G1 X108.326 Y106.944 E0.10996
G1 X108.920 Y106.944 E0.01557
G1 X111.887 Y103.976 E0.10996
G1 X112.481 Y103.976 E0.01557
G1 X109.514 Y106.944 E0.10996
G1 X110.108 Y106.944 E0.01557
M73 Q4 S21
G1 X113.076 Y103.976 E0.10996
G1 X113.670 Y103.976 E0.01557
G1 X110.703 Y106.944 E0.10996
G1 X111.297 Y106.944 E0.01557
G1 X114.264 Y103.976 E0.10996
M73 P4 R21
G1 X114.858 Y103.976 E0.01557
G1 X111.891 Y106.944 E0.10996
G1 X112.485 Y106.944 E0.01557
G1 X115.452 Y103.976 E0.10996
G1 X116.047 Y103.976 E0.01557
G1 X113.079 Y106.944 E0.10996
G1 X113.674 Y106.944 E0.01557
G1 X116.641 Y103.976 E0.10996
G1 X117.235 Y103.976 E0.01557
G1 X114.268 Y106.944 E0.10996
G1 X114.862 Y106.944 E0.01557
G1 X117.829 Y103.976 E0.10996
G1 X118.424 Y103.976 E0.01557
G1 X115.456 Y106.944 E0.10996
G1 X116.050 Y106.944 E0.01557
G1 X119.018 Y103.976 E0.10996
G1 X119.612 Y103.976 E0.01557
G1 X116.645 Y106.944 E0.10996
G1 X117.239 Y106.944 E0.01557
G1 X120.206 Y103.976 E0.10996
G1 X120.800 Y103.976 E0.01557
G1 X117.833 Y106.944 E0.10996
G1 X118.427 Y106.944 E0.01557
G1 X121.395 Y103.976 E0.10996
G1 X121.989 Y103.976 E0.01557
G1 X119.022 Y106.944 E0.10996
G1 X119.616 Y106.944 E0.01557
G1 X122.583 Y103.976 E0.10996
G1 X123.177 Y103.976 E0.01557
G1 X120.210 Y106.944 E0.10996
G1 X120.804 Y106.944 E0.01557
G1 X123.771 Y103.976 E0.10996
G1 X124.366 Y103.976 E0.01557
G1 X121.398 Y106.944 E0.10996
G1 X121.993 Y106.944 E0.01557
G1 X124.960 Y103.976 E0.10996
G1 X125.554 Y103.976 E0.01557
G1 X122.587 Y106.944 E0.10996
G1 X123.181 Y106.944 E0.01557
G1 X126.148 Y103.976 E0.10996
G1 X126.743 Y103.976 E0.01557
G1 X123.775 Y106.944 E0.10996
G1 X124.369 Y106.944 E0.01557
G1 X127.337 Y103.976 E0.10996
G1 X127.931 Y103.976 E0.01557
G1 X124.964 Y106.944 E0.10996
G1 X125.558 Y106.944 E0.01557
G1 X128.525 Y103.976 E0.10996
G1 X129.002 Y103.976 E0.01251
G1 X129.002 Y104.093 E0.00306
G1 X126.152 Y106.944 E0.10563
G1 X126.746 Y106.944 E0.01557
G1 X129.002 Y104.687 E0.08361
G1 X129.002 Y105.282 E0.01557
G1 X127.340 Y106.944 E0.06159
G1 X127.935 Y106.944 E0.01557
G1 X129.002 Y105.876 E0.03957
G1 X129.002 Y106.470 E0.01557
G1 X128.341 Y107.132 E0.02452
M204 S1000
;BEFORE_LAYER_CHANGE
G92 E0.0
;0.5


G1 F8640
G1 X129.002 Y106.470 E-0.21604
G1 X129.002 Y105.876 E-0.13720
G1 X127.935 Y106.944 E-0.34868
G1 X127.683 Y106.944 E-0.05807
G1 E-0.04000 F2100.00000
G1 Z0.950 F10800.000
;AFTER_LAYER_CHANGE
;0.5
G1 X130.793 Y110.422
G1 Z0.500
G1 E0.80000 F2100.00000
G1 F1894
G1 X90.132 Y110.462 E0.98338
G1 X89.297 Y110.280 E0.02067
G1 X88.568 Y109.833 E0.02067
G1 X88.027 Y109.172 E0.02067
G1 X87.732 Y108.370 E0.02067
G1 X87.689 Y103.004 E0.12976
G1 X87.771 Y102.374 E0.01537
G1 X88.052 Y101.705 E0.01755
G1 X88.505 Y101.143 E0.01746
G1 X89.097 Y100.730 E0.01746
G1 X89.785 Y100.498 E0.01755
G1 X130.327 Y100.455 E0.98051
G1 X131.280 Y100.640 E0.02350
G1 X132.097 Y101.167 E0.02350
G1 X132.659 Y101.959 E0.02350
G1 X132.886 Y102.900 E0.02340
G1 X132.888 Y107.939 E0.12188
G1 X132.794 Y108.588 E0.01584
G1 X132.509 Y109.242 E0.01727
G1 X132.055 Y109.793 E0.01727
G1 X131.466 Y110.197 E0.01727
G1 X130.849 Y110.403 E0.01572
G1 F8640
G1 X127.558 Y110.408 E-0.76000
G1 E-0.04000 F2100.00000
G1 Z1.100 F10800.000
G1 X129.680 Y107.257
G1 Z0.500
G1 E0.80000 F2100.00000
M204 S800
G1 F1894
G1 X90.897 Y107.257 E1.01051
G1 X90.897 Y103.663 E0.09364
G1 X129.680 Y103.663 E1.01051
G1 X129.680 Y107.197 E0.09208
M204 S1000
G1 F8640
G1 X126.388 Y107.202 E-0.76000
G1 E-0.04000 F2100.00000
G1 Z1.100 F10800.000
G1 X90.479 Y107.675
G1 Z0.500
G1 E0.80000 F2100.00000
M204 S800
G1 F1500
G1 X90.479 Y103.245 E0.11542
G1 X130.098 Y103.245 E1.03229
G1 X130.098 Y107.675 E0.11542
G1 X90.539 Y107.675 E1.03072
M204 S1000
G1 X90.666 Y107.321 F10800.000
G1 F8640
G1 X90.495 Y104.384 E-0.76000
G1 E-0.04000 F2100.00000
G1 Z1.100 F10800.000
G1 X91.023 Y106.287
G1 Z0.500
G1 E0.80000 F2100.00000
M204 S1250
G1 F1894
G1 X91.679 Y106.944 E0.02420
G1 X92.270 Y106.944 E0.01540
G1 X91.211 Y105.884 E0.03905
G1 X91.211 Y105.293 E0.01540
G1 X92.861 Y106.944 E0.06083
G1 X93.452 Y106.944 E0.01540
G1 X91.211 Y104.702 E0.08261
G1 X91.211 Y104.111 E0.01540
G1 X94.043 Y106.944 E0.10439
G1 X94.634 Y106.944 E0.01540
G1 X91.667 Y103.976 E0.10936
G1 X92.258 Y103.976 E0.01540
G1 X95.225 Y106.944 E0.10936
G1 X95.816 Y106.944 E0.01540
G1 X92.849 Y103.976 E0.10936
G1 X93.440 Y103.976 E0.01540
