; generated by PrusaSlicer 2.1.0+win64 on 2019-11-18 at 22:37:51 UTC

; 

; external perimeters extrusion width = 0.45mm
; perimeters extrusion width = 0.45mm
; infill extrusion width = 0.45mm
; solid infill extrusion width = 0.45mm
; top infill extrusion width = 0.40mm
; first layer extrusion width = 0.42mm

M73 P0 R49
M73 Q0 S49
M201 X1000 Y1000 Z1000 E5000 ; sets maximum accelerations, mm/sec^2
M203 X200 Y200 Z12 E120 ; sets maximum feedrates, mm/sec
M204 P1250 R1250 T1250 ; sets acceleration (P, T) and retract acceleration (R), mm/sec^2
M205 X8.00 Y8.00 Z0.40 E1.50 ; sets the jerk limits, mm/sec
M205 S0 T0 ; sets the minimum extruding and travel feed rate, mm/sec
M107
M862.3 P "MK3S" ; printer model check
M862.1 P0.4 ; nozzle diameter check
M115 U3.8.1 ; tell printer latest fw version
G90 ; use absolute coordinates
M83 ; extruder relative mode
M104 S215 ; set extruder temp
M140 S60 ; set bed temp
M190 S60 ; wait for bed temp
M109 S215 ; wait for extruder temp
G28 W ; home all without mesh bed level
G80 ; mesh bed leveling
G1 Y-3.0 F1000.0 ; go outside print area
G92 E0.0
G1 X60.0 E9.0 F1000.0 ; intro line
M73 Q0 S49
M73 P0 R49
G1 X100.0 E12.5 F1000.0 ; intro line
G92 E0.0
M221 S95
G21 ; set units to millimeters
G90 ; use absolute coordinates
M83 ; use relative distances for extrusion
M900 K30 ; Filament gcode
;BEFORE_LAYER_CHANGE
G92 E0.0
;0.2


G1 E-0.80000 F2100.00000
G1 Z0.600 F10800.000
;AFTER_LAYER_CHANGE
;0.2
G1 X90.197 Y92.803
G1 Z0.200
G1 E0.80000 F2100.00000
M204 S1000
G1 F1200
G1 X90.495 Y92.199 E0.02112
G1 X90.803 Y91.848 E0.01464
G1 X91.181 Y91.568 E0.01475
G1 X124.186 Y72.503 E1.19508
G1 X125.051 Y72.270 E0.02810
G1 X130.069 Y72.172 E0.15736
G1 X130.862 Y72.323 E0.02529
G1 X131.548 Y72.753 E0.02541
G1 X132.032 Y73.403 E0.02541
G1 X132.245 Y74.182 E0.02529
G1 X132.680 Y97.573 E0.73354
G1 X132.579 Y98.235 E0.02100
G1 X132.281 Y98.835 E0.02100
G1 X131.897 Y99.254 E0.01783
G1 X99.002 Y126.698 E1.34320
G1 X98.492 Y126.957 E0.01794
G1 X97.932 Y127.076 E0.01794
G1 X92.897 Y127.176 E0.15791
G1 X92.224 Y127.078 E0.02134
G1 X91.613 Y126.777 E0.02134
G1 X91.238 Y126.442 E0.01578
G1 X90.947 Y126.027 E0.01589
G1 X90.761 Y125.559 E0.01578
G1 X90.686 Y125.058 E0.01589
G1 X90.097 Y93.472 E0.99051
G1 X90.188 Y92.862 E0.01935
G1 F8640
G1 X90.495 Y92.199 E-0.16875
G1 X90.803 Y91.848 E-0.10781
G1 X91.181 Y91.568 E-0.10865
G1 X92.587 Y90.756 E-0.37478
G1 E-0.04000 F2100.00000
G1 Z0.800 F10800.000
G1 X93.725 Y94.844
G1 Z0.200
G1 E0.80000 F2100.00000
G1 F1200
G1 X126.989 Y94.204 E1.04317
G1 X126.671 Y79.647 E0.45652
G1 X126.621 Y75.014 E0.14526
G1 X128.639 Y74.976 E0.06326
G1 X128.783 Y80.407 E0.17035
G1 X129.052 Y96.189 E0.49493
G1 X95.788 Y96.830 E1.04316
G1 X96.222 Y117.455 E0.64684
G1 X96.314 Y124.335 E0.21571
G1 X94.300 Y124.373 E0.06318
G1 X94.111 Y116.696 E0.24079
G1 X93.726 Y94.904 E0.68337
G1 F8640
G1 X97.017 Y94.835 E-0.76000
G1 E-0.04000 F2100.00000
G1 Z0.800 F10800.000
G1 X96.173 Y97.200
G1 Z0.200
G1 E0.80000 F2100.00000
G1 F1200
G1 X96.600 Y117.449 E0.63505
G1 X96.696 Y124.704 E0.22751
G1 X93.932 Y124.758 E0.08669
G1 X93.734 Y116.704 E0.25260
G1 X93.341 Y94.474 E0.69710
G1 X126.604 Y93.834 E1.04312
G1 X126.294 Y79.653 E0.44473
G1 X126.240 Y74.645 E0.15705
G1 X129.006 Y74.591 E0.08672
G1 X129.160 Y80.398 E0.18214
G1 X129.436 Y96.559 E0.50679
G1 X96.233 Y97.198 E1.04123
G1 X95.779 Y97.268 F10800.000
G1 F8640
G1 X96.293 Y100.489 E-0.76000
G1 E-0.04000 F2100.00000
G1 Z0.800 F10800.000
G1 X95.159 Y124.244
G1 Z0.200
G1 E0.80000 F2100.00000
G1 F1200
G1 X94.565 Y123.649 E0.02642
G1 X94.551 Y123.101 E0.01722
G1 X95.517 Y124.067 E0.04292
G1 X96.028 Y124.057 E0.01604
G1 X96.028 Y124.043 E0.00044
G1 X94.538 Y122.553 E0.06620
G1 X94.524 Y122.005 E0.01722
G1 X96.020 Y123.501 E0.06647
G1 X96.013 Y122.960 E0.01702
G1 X94.511 Y121.458 E0.06675
G1 X94.497 Y120.910 E0.01722
G1 X96.006 Y122.418 E0.06703
G1 X95.999 Y121.877 E0.01702
G1 X94.484 Y120.362 E0.06731
G1 X94.470 Y119.814 E0.01722
G1 X95.991 Y121.335 E0.06759
G1 X95.984 Y120.794 E0.01702
G1 X94.457 Y119.266 E0.06786
G1 X94.443 Y118.718 E0.01722
G1 X95.977 Y120.252 E0.06814
G1 X95.970 Y119.710 E0.01702
G1 X94.430 Y118.171 E0.06842
G1 X94.416 Y117.623 E0.01722
G1 X95.963 Y119.169 E0.06870
G1 X95.955 Y118.627 E0.01702
G1 X94.403 Y117.075 E0.06898
G1 X94.391 Y116.528 E0.01718
G1 X95.948 Y118.086 E0.06920
G1 X95.941 Y117.544 E0.01702
G1 X94.381 Y115.984 E0.06931
G1 X94.371 Y115.440 E0.01709
G1 X95.930 Y116.999 E0.06925
G1 X95.919 Y116.453 E0.01715
G1 X94.362 Y114.896 E0.06917
G1 X94.352 Y114.352 E0.01709
G1 X95.907 Y115.907 E0.06909
G1 X95.896 Y115.361 E0.01715
G1 X94.343 Y113.808 E0.06900
G1 X94.333 Y113.264 E0.01709
G1 X95.884 Y114.815 E0.06892
G1 X95.873 Y114.270 E0.01715
G1 X94.323 Y112.720 E0.06884
G1 X94.314 Y112.176 E0.01709
G1 X95.861 Y113.724 E0.06875
G1 X95.850 Y113.178 E0.01715
G1 X94.304 Y111.632 E0.06867
G1 X94.295 Y111.088 E0.01709
G1 X95.838 Y112.632 E0.06859
G1 X95.827 Y112.086 E0.01715
G1 X94.285 Y110.544 E0.06850
G1 X94.275 Y110.000 E0.01709
G1 X95.815 Y111.540 E0.06842
G1 X95.804 Y110.994 E0.01715
G1 X94.266 Y109.456 E0.06834
G1 X94.256 Y108.913 E0.01709
G1 X95.792 Y110.449 E0.06825
G1 X95.781 Y109.903 E0.01715
G1 X94.247 Y108.369 E0.06817
G1 X94.237 Y107.825 E0.01709
G1 X95.769 Y109.357 E0.06808
G1 X95.758 Y108.811 E0.01715
G1 X94.227 Y107.281 E0.06800
G1 X94.218 Y106.737 E0.01709
G1 X95.746 Y108.265 E0.06792
G1 X95.735 Y107.719 E0.01715
G1 X94.208 Y106.193 E0.06783
G1 X94.198 Y105.649 E0.01709
G1 X95.723 Y107.173 E0.06775
G1 X95.712 Y106.628 E0.01715
G1 X94.189 Y105.105 E0.06767
G1 X94.179 Y104.561 E0.01709
G1 X95.700 Y106.082 E0.06758
G1 X95.689 Y105.536 E0.01715
G1 X94.170 Y104.017 E0.06750
G1 X94.160 Y103.473 E0.01709
G1 X95.677 Y104.990 E0.06742
G1 X95.666 Y104.444 E0.01715
G1 X94.150 Y102.929 E0.06733
G1 X94.141 Y102.385 E0.01709
G1 X95.654 Y103.898 E0.06725
G1 X95.643 Y103.353 E0.01715
G1 X94.131 Y101.841 E0.06717
G1 X94.122 Y101.297 E0.01709
G1 X95.631 Y102.807 E0.06708
G1 X95.620 Y102.261 E0.01715
G1 X94.112 Y100.753 E0.06700
G1 X94.102 Y100.209 E0.01709
G1 X95.608 Y101.715 E0.06692
G1 X95.597 Y101.169 E0.01715
G1 X94.093 Y99.665 E0.06683
G1 X94.083 Y99.121 E0.01709
G1 X95.585 Y100.623 E0.06675
G1 X95.574 Y100.077 E0.01715
G1 X94.074 Y98.577 E0.06667
G1 X94.064 Y98.033 E0.01709
G1 X95.562 Y99.532 E0.06658
G1 X95.551 Y98.986 E0.01715
G1 X94.054 Y97.489 E0.06650
G1 X94.045 Y96.945 E0.01709
G1 X95.540 Y98.440 E0.06641
G1 X95.528 Y97.894 E0.01715
G1 X94.035 Y96.401 E0.06633
G1 X94.026 Y95.857 E0.01709
G1 X95.517 Y97.348 E0.06625
G1 X95.505 Y96.802 E0.01715
G1 X94.016 Y95.313 E0.06616
G1 X94.013 Y95.121 E0.00603
G1 X94.352 Y95.115 E0.01067
G1 X95.784 Y96.547 E0.06364
G1 X96.309 Y96.537 E0.01647
G1 X94.876 Y95.105 E0.06364
G1 X95.401 Y95.095 E0.01647
G1 X96.833 Y96.527 E0.06364
G1 X97.357 Y96.517 E0.01647
G1 X95.925 Y95.085 E0.06364
G1 X96.449 Y95.074 E0.01647
G1 X97.881 Y96.507 E0.06364
G1 X98.406 Y96.497 E0.01647
G1 X96.973 Y95.064 E0.06364
G1 X97.498 Y95.054 E0.01647
G1 X98.930 Y96.487 E0.06364
G1 X99.454 Y96.476 E0.01647
G1 X98.022 Y95.044 E0.06364
G1 X98.546 Y95.034 E0.01647
G1 X99.978 Y96.466 E0.06364
G1 X100.503 Y96.456 E0.01647
G1 X99.070 Y95.024 E0.06364
G1 X99.595 Y95.014 E0.01647
G1 X101.027 Y96.446 E0.06364
G1 X101.551 Y96.436 E0.01647
G1 X100.119 Y95.004 E0.06364
G1 X100.643 Y94.994 E0.01647
G1 X102.075 Y96.426 E0.06364
G1 X102.600 Y96.416 E0.01647
G1 X101.168 Y94.984 E0.06364
G1 X101.692 Y94.974 E0.01647
G1 X103.124 Y96.406 E0.06364
G1 X103.648 Y96.396 E0.01647
G1 X102.216 Y94.963 E0.06364
G1 X102.740 Y94.953 E0.01647
G1 X104.173 Y96.386 E0.06364
G1 X104.697 Y96.375 E0.01647
G1 X103.265 Y94.943 E0.06364
G1 X103.789 Y94.933 E0.01647
G1 X105.221 Y96.365 E0.06364
G1 X105.745 Y96.355 E0.01647
G1 X104.313 Y94.923 E0.06364
G1 X104.837 Y94.913 E0.01647
G1 X106.270 Y96.345 E0.06364
G1 X106.794 Y96.335 E0.01647
G1 X105.362 Y94.903 E0.06364
G1 X105.886 Y94.893 E0.01647
G1 X107.318 Y96.325 E0.06364
G1 X107.842 Y96.315 E0.01647
G1 X106.410 Y94.883 E0.06364
G1 X106.934 Y94.873 E0.01647
G1 X108.367 Y96.305 E0.06364
G1 X108.891 Y96.295 E0.01647
G1 X107.459 Y94.862 E0.06364
G1 X107.983 Y94.852 E0.01647
G1 X109.415 Y96.285 E0.06364
G1 X109.940 Y96.275 E0.01647
G1 X108.507 Y94.842 E0.06364
G1 X109.032 Y94.832 E0.01647
G1 X110.464 Y96.264 E0.06364
G1 X110.988 Y96.254 E0.01647
G1 X109.556 Y94.822 E0.06364
G1 X110.080 Y94.812 E0.01647
G1 X111.512 Y96.244 E0.06364
G1 X112.037 Y96.234 E0.01647
G1 X110.604 Y94.802 E0.06364
G1 X111.129 Y94.792 E0.01647
G1 X112.561 Y96.224 E0.06364
G1 X113.085 Y96.214 E0.01647
G1 X111.653 Y94.782 E0.06364
G1 X112.177 Y94.772 E0.01647
G1 X113.609 Y96.204 E0.06364
G1 X114.134 Y96.194 E0.01647
G1 X112.701 Y94.762 E0.06364
G1 X113.226 Y94.751 E0.01647
G1 X114.658 Y96.184 E0.06364
G1 X115.182 Y96.174 E0.01647
G1 X113.750 Y94.741 E0.06364
G1 X114.274 Y94.731 E0.01647
G1 X115.707 Y96.164 E0.06364
G1 X116.231 Y96.153 E0.01647
G1 X114.799 Y94.721 E0.06364
G1 X115.323 Y94.711 E0.01647
G1 X116.755 Y96.143 E0.06364
G1 X117.279 Y96.133 E0.01647
G1 X115.847 Y94.701 E0.06364
G1 X116.371 Y94.691 E0.01647
G1 X117.804 Y96.123 E0.06364
G1 X118.328 Y96.113 E0.01647
G1 X116.896 Y94.681 E0.06364
G1 X117.420 Y94.671 E0.01647
G1 X118.852 Y96.103 E0.06364
G1 X119.376 Y96.093 E0.01647
G1 X117.944 Y94.661 E0.06364
G1 X118.468 Y94.650 E0.01647
G1 X119.901 Y96.083 E0.06364
G1 X120.425 Y96.073 E0.01647
G1 X118.993 Y94.640 E0.06364
G1 X119.517 Y94.630 E0.01647
G1 X120.949 Y96.063 E0.06364
G1 X121.474 Y96.052 E0.01647
G1 X120.041 Y94.620 E0.06364
G1 X120.566 Y94.610 E0.01647
G1 X121.998 Y96.042 E0.06364
G1 X122.522 Y96.032 E0.01647
G1 X121.090 Y94.600 E0.06364
G1 X121.614 Y94.590 E0.01647
G1 X123.046 Y96.022 E0.06364
G1 X123.571 Y96.012 E0.01647
G1 X122.138 Y94.580 E0.06364
G1 X122.663 Y94.570 E0.01647
G1 X124.095 Y96.002 E0.06364
G1 X124.619 Y95.992 E0.01647
G1 X123.187 Y94.560 E0.06364
G1 X123.711 Y94.550 E0.01647
G1 X125.143 Y95.982 E0.06364
G1 X125.668 Y95.972 E0.01647
G1 X124.235 Y94.539 E0.06364
G1 X124.760 Y94.529 E0.01647
G1 X126.192 Y95.962 E0.06364
G1 X126.716 Y95.952 E0.01647
G1 X125.284 Y94.519 E0.06364
G1 X125.808 Y94.509 E0.01647
G1 X127.241 Y95.941 E0.06364
G1 X127.765 Y95.931 E0.01647
G1 X126.333 Y94.499 E0.06364
G1 X126.857 Y94.489 E0.01647
G1 X128.289 Y95.921 E0.06364
G1 X128.765 Y95.912 E0.01495
G1 X128.764 Y95.862 E0.00158
G1 X127.276 Y94.373 E0.06614
G1 X127.264 Y93.827 E0.01717
G1 X128.755 Y95.318 E0.06626
G1 X128.746 Y94.775 E0.01708
G1 X127.252 Y93.281 E0.06637
G1 X127.240 Y92.734 E0.01717
G1 X128.736 Y94.231 E0.06649
G1 X128.727 Y93.687 E0.01708
G1 X127.228 Y92.188 E0.06661
G1 X127.216 Y91.642 E0.01717
G1 X128.718 Y93.144 E0.06673
G1 X128.708 Y92.600 E0.01708
G1 X127.204 Y91.096 E0.06684
G1 X127.192 Y90.549 E0.01717
G1 X128.699 Y92.056 E0.06696
G1 X128.690 Y91.513 E0.01708
G1 X127.180 Y90.003 E0.06708
G1 X127.168 Y89.457 E0.01717
G1 X128.681 Y90.969 E0.06720
G1 X128.671 Y90.425 E0.01708
G1 X127.156 Y88.910 E0.06731
G1 X127.144 Y88.364 E0.01717
G1 X128.662 Y89.882 E0.06743
G1 X128.653 Y89.338 E0.01708
G1 X127.132 Y87.818 E0.06755
G1 X127.121 Y87.272 E0.01717
G1 X128.643 Y88.794 E0.06767
G1 X128.634 Y88.251 E0.01708
G1 X127.109 Y86.725 E0.06778
G1 X127.097 Y86.179 E0.01717
G1 X128.625 Y87.707 E0.06790
G1 X128.616 Y87.164 E0.01708
G1 X127.085 Y85.633 E0.06802
G1 X127.073 Y85.086 E0.01717
G1 X128.606 Y86.620 E0.06813
G1 X128.597 Y86.076 E0.01708
G1 X127.061 Y84.540 E0.06825
G1 X127.049 Y83.994 E0.01717
G1 X128.588 Y85.533 E0.06837
G1 X128.578 Y84.989 E0.01708
G1 X127.037 Y83.448 E0.06849
G1 X127.025 Y82.901 E0.01717
G1 X128.569 Y84.445 E0.06860
G1 X128.560 Y83.902 E0.01708
G1 X127.013 Y82.355 E0.06872
G1 X127.001 Y81.809 E0.01717
G1 X128.551 Y83.358 E0.06884
G1 X128.541 Y82.814 E0.01708
G1 X126.989 Y81.262 E0.06896
G1 X126.978 Y80.716 E0.01717
G1 X128.532 Y82.271 E0.06907
G1 X128.523 Y81.727 E0.01708
G1 X126.966 Y80.170 E0.06919
G1 X126.954 Y79.624 E0.01716
G1 X128.514 Y81.183 E0.06930
G1 X128.504 Y80.640 E0.01708
G1 X126.948 Y79.084 E0.06914
G1 X126.942 Y78.543 E0.01697
G1 X128.492 Y80.093 E0.06885
G1 X128.477 Y79.544 E0.01725
G1 X126.936 Y78.003 E0.06846
G1 X126.931 Y77.463 E0.01697
G1 X128.463 Y78.995 E0.06807
G1 X128.448 Y78.446 E0.01725
G1 X126.925 Y76.923 E0.06768
G1 X126.919 Y76.383 E0.01697
G1 X128.433 Y77.897 E0.06729
G1 X128.419 Y77.348 E0.01725
G1 X126.913 Y75.842 E0.06690
G1 X126.907 Y75.302 E0.01697
G1 X128.404 Y76.799 E0.06651
G1 X128.390 Y76.250 E0.01725
G1 X127.421 Y75.282 E0.04303
G1 X127.945 Y75.272 E0.01647
G1 X128.549 Y75.876 E0.02684
M106 S255
;BEFORE_LAYER_CHANGE
G92 E0.0
;0.35


G1 F8640
G1 X127.945 Y75.272 E-0.19723
G1 X127.421 Y75.282 E-0.12108
G1 X128.390 Y76.250 E-0.31625
G1 X128.404 Y76.793 E-0.12544
G1 E-0.04000 F2100.00000
G1 Z0.800 F10800.000
;AFTER_LAYER_CHANGE
;0.35
G1 X132.032 Y73.403
G1 Z0.350
G1 E0.80000 F2100.00000
G1 F3000
G1 X132.245 Y74.182 E0.01951
G1 X132.680 Y97.573 E0.56581
G1 X132.579 Y98.235 E0.01620
G1 X132.281 Y98.835 E0.01620
G1 X131.897 Y99.254 E0.01375
G1 X99.002 Y126.698 E1.03607
G1 X98.492 Y126.957 E0.01384
G1 X97.932 Y127.076 E0.01384
G1 X92.897 Y127.176 E0.12180
G1 X92.224 Y127.078 E0.01646
G1 X91.613 Y126.777 E0.01646
G1 X91.238 Y126.442 E0.01217
G1 X90.947 Y126.027 E0.01226
G1 X90.761 Y125.559 E0.01217
G1 X90.686 Y125.058 E0.01226
G1 X90.097 Y93.472 E0.76402
G1 X90.197 Y92.803 E0.01637
G1 X90.495 Y92.199 E0.01629
G1 X90.803 Y91.848 E0.01129
G1 X91.181 Y91.568 E0.01138
G1 X124.186 Y72.503 E0.92181
G1 X125.051 Y72.270 E0.02168
G1 X130.069 Y72.172 E0.12138
G1 X130.862 Y72.323 E0.01951
G1 X131.548 Y72.753 E0.01960
G1 X131.996 Y73.355 E0.01815
G1 F8640
G1 X132.245 Y74.182 E-0.19925
G1 X132.290 Y76.610 E-0.56075
G1 E-0.04000 F2100.00000
G1 Z0.950 F10800.000
G1 X129.073 Y75.023
G1 Z0.350
G1 E0.80000 F2100.00000
M204 S800
G1 F2700
G1 X129.552 Y96.670 E0.56417
G1 X96.291 Y97.310 E0.86680
G1 X96.747 Y124.270 E0.70257
G1 X93.865 Y124.326 E0.07512
G1 X93.228 Y94.363 E0.78087
G1 X126.486 Y93.723 E0.86673
G1 X126.189 Y75.078 E0.48586
M73 Q2 S48
G1 X129.013 Y75.024 E0.07360
M204 S1000
G1 X129.005 Y74.606 F10800.000
M204 S800
G1 F1500
G1 X129.482 Y74.597 E0.01241
G1 X129.977 Y97.080 E0.58594
M73 P2 R48
G1 X96.715 Y97.720 E0.86681
G1 X97.172 Y124.680 E0.70257
G1 X93.456 Y124.752 E0.09685
G1 X92.801 Y93.954 E0.80265
G1 X126.061 Y93.313 E0.86679
G1 X125.765 Y74.669 E0.48586
G1 X128.945 Y74.607 E0.08288
M204 S1000
G1 X129.344 Y74.820 F10800.000
G1 F8640
G1 X129.482 Y74.597 E-0.12387
G1 X129.542 Y77.351 E-0.63613
G1 E-0.04000 F2100.00000
G1 Z0.950 F10800.000
G1 X127.245 Y75.183
G1 Z0.350
G1 E0.80000 F2100.00000
M204 S1250
G1 F4800
G1 X126.516 Y75.912 E0.02714
G1 X126.525 Y76.500 E0.01548
G1 X127.662 Y75.363 E0.04232
G1 X128.271 Y75.352 E0.01603
G1 X126.535 Y77.088 E0.06464
G1 X126.544 Y77.676 E0.01548
G1 X128.770 Y75.450 E0.08287
G1 X128.783 Y76.034 E0.01538
G1 X126.553 Y78.263 E0.08301
G1 X126.563 Y78.851 E0.01548
G1 X128.796 Y76.618 E0.08315
G1 X128.809 Y77.202 E0.01538
G1 X126.572 Y79.439 E0.08329
G1 X126.581 Y80.026 E0.01548
G1 X128.822 Y77.786 E0.08343
G1 X128.835 Y78.370 E0.01538
G1 X126.591 Y80.614 E0.08357
G1 X126.600 Y81.202 E0.01548
G1 X128.848 Y78.954 E0.08372
G1 X128.862 Y79.538 E0.01538
G1 X126.609 Y81.790 E0.08386
G1 X126.619 Y82.377 E0.01548
G1 X128.875 Y80.121 E0.08400
G1 X128.888 Y80.705 E0.01538
G1 X126.628 Y82.965 E0.08414
G1 X126.638 Y83.553 E0.01548
G1 X128.901 Y81.289 E0.08428
G1 X128.914 Y81.873 E0.01538
G1 X126.647 Y84.141 E0.08442
G1 X126.656 Y84.728 E0.01548
G1 X128.927 Y82.457 E0.08456
G1 X128.940 Y83.041 E0.01538
G1 X126.666 Y85.316 E0.08471
G1 X126.675 Y85.904 E0.01548
G1 X128.954 Y83.625 E0.08485
G1 X128.967 Y84.209 E0.01538
G1 X126.684 Y86.491 E0.08499
G1 X126.694 Y87.079 E0.01548
G1 X128.980 Y84.793 E0.08513
G1 X128.993 Y85.377 E0.01538
G1 X126.703 Y87.667 E0.08527
G1 X126.712 Y88.255 E0.01548
G1 X129.006 Y85.961 E0.08541
G1 X129.019 Y86.545 E0.01538
G1 X126.722 Y88.842 E0.08555
G1 X126.731 Y89.430 E0.01548
G1 X129.032 Y87.129 E0.08570
G1 X129.046 Y87.713 E0.01538
G1 X126.740 Y90.018 E0.08584
G1 X126.750 Y90.606 E0.01548
G1 X129.059 Y88.296 E0.08598
